svgs/oto_music.svg

<svg width="192" height="192" viewBox="0 0 192 192" fill="none" xmlns="http://www.w3.org/2000/svg">
<path d="M118 132C118 136.99 117.017 141.932 115.107 146.542C113.198 151.152 110.399 155.341 106.87 158.87C103.341 162.399 99.1523 165.198 94.542 167.107C89.9316 169.017 84.9902 170 80 170C75.0098 170 70.0684 169.017 65.458 167.107C60.8477 165.198 56.6586 162.399 53.1299 158.87C49.6013 155.341 46.8023 151.152 44.8926 146.542C42.9829 141.932 42 136.99 42 132C42 127.01 42.9829 122.068 44.8926 117.458C46.8023 112.848 49.6013 108.659 53.1299 105.13C56.6586 101.601 60.8477 98.8023 65.458 96.8926C70.0684 94.9829 75.0098 94 80 94C84.9902 94 89.9316 94.9829 94.542 96.8926C99.1523 98.8023 103.341 101.601 106.87 105.13C110.399 108.659 113.198 112.848 115.107 117.458C117.017 122.068 118 127.01 118 132L118 132Z" stroke="black" stroke-width="12" stroke-linecap="round"/>
<path d="M118 132V57C118 37.67 133.67 22 153 22H154" stroke="black" stroke-width="12" stroke-linecap="round" stroke-linejoin="round"/>
<path d="M106 22H70" stroke="black" stroke-width="12" stroke-linecap="round" stroke-linejoin="round"/>
<circle cx="151" cy="55" r="9" fill="black"/>
</svg>

<svg xmlns="http://www.w3.org/2000/svg" width="192" height="192" fill="none" xmlns:v="https://vecta.io/nano"><g stroke="#000" stroke-width="12"><path d="M118 132c0 4.99-.983 9.932-2.893 14.542a37.99 37.99 0 0 1-8.237 12.328c-3.529 3.529-7.718 6.328-12.328 8.237S84.99 170 80 170s-9.932-.983-14.542-2.893-8.799-4.708-12.328-8.237a38.01 38.01 0 0 1-8.237-12.328 38 38 0 0 1 0-29.084 38.01 38.01 0 0 1 8.237-12.328c3.529-3.529 7.718-6.328 12.328-8.237a38 38 0 0 1 29.084 0 38 38 0 0 1 12.328 8.237 37.99 37.99 0 0 1 8.237 12.328c1.91 4.61 2.893 9.552 2.893 14.542h0z"/><path d="M118 132V57c0-19.33 15.67-35 35-35h1m-48 0H70" stroke-linecap="round" stroke-linejoin="round"/></g><circle cx="151" cy="55" r="9" fill="#000"/></svg>
